X: 11181
T: WHEN TIME HATH BEREFT THEE
C: Auber.
Q: "Moderate."
%R: air
B: W. Hamilton "Universal Tune-Book" Vol. 1 Glasgow 1844 p.118 #1
S: http://imslp.org/wiki/Hamilton's_Universal_Tune-Book_(Various)
Z: 2016 John Chambers <jc:trillian.mit.edu>
M: C
L: 1/8
K: G
%%slurgraces yes
%%graceslurs yes
% - - - - - - - - - - - - - - - - - - - - - - - - -
GF |!p!\
G6 GF | G2 "_>"G4 (Bc) | d6 AB | G6 GF |\
G6 GF | G2 "_>"G4 (Bc) | d6 AB | G6 |]\
F>G |\
A2 "_>"A4 GA | B2 B4 (^AB) | ^c6
(Bc) | d6 (^cd) |!f!\
e6 (de) | f2 (f3 g) Be | d3 A f3 e | Hd4 z2 !p!G>F |\
G4 z2 GF | A2 "_>"G4 Bc | d6 AB | G4 z2 Bc |\
(d2 e2) d2 B2 | GF "_>"G4 (GA) |
(B2 c2 B2) G2 | (EF) E4 EF |\
G4 F2 E2 | D2 !f!"_>"g2 f2 e2 | (d2 e2) (A2 d2) | {c}B4 z2 GA |\
(_B2 G2) E2 A2 | D2 "_>"g2 f2 e2 | "^ad lib."dcAF D2 B>A | (A3 B/A/ G2) |]
% - - - - - - - - - - - - - - - - - - - - - - - - -

%%sep 1 1 500
%%sep 1 1 500

